Newaita/actions/24/document-edit-decrypt-verify.svg

<svg height="24" viewBox="0 0 24 24" width="24" xmlns="http://www.w3.org/2000/svg"><g fill="#424242"><path d="m11.90625 12.09375v1.984375h1.984375v-1.984375zm1.984375 1.984375v1.984375h1.984375v-1.984375zm1.984375 0h1.621094c.109375-.109375.230468-.199219.363281-.273437v-1.710938h-1.984375zm0 1.984375v.109375l.085938-.109375zm-1.984375 0h-1.246094c.136719.066406.265625.148438.382813.257812l.863281.796876zm-1.984375-1.984375h-1.984375v1.984375h1.453125c.167969-.074219.347656-.121094.53125-.132812zm7.761719 0 .175781.136719v-.136719zm-1.011719 1.714844-.207031.269531h.105469l.167968-.21875zm-.796875 1.039062-.933594 1.214844h.105469l.828125-1.082031zm1.660156 1.214844-1.523437 1.984375h1.847656v-1.984375zm-9.597656.699219v1.285156h1.183594l-.8125-.75c-.167969-.152344-.289063-.335938-.371094-.535156zm5.953125.671875-.335938.441406c-.050781.0625-.109374.121094-.175781.171875h.144531l.367188-.480469zm-1.984375.386719v.113281l.125.113281h.128906c-.019531-.015625-.039062-.03125-.058593-.046875zm3.96875.40625-1.386719 1.808593h1.386719zm-5.953125.5625v1.246093h1.347656zm0 0" fill-opacity=".392157"/><path d="m18.546875 14.617188c-.152344.007812-.292969.078124-.386719.199218l-3.40625 4.441406-2.398437-2.214843c-.207031-.191407-.53125-.179688-.726563.03125l-.695312.753906c-.195313.210937-.179688.535156.027344.730469l3.640624 3.355468c.222657.207032.570313.175782.757813-.0625l4.433594-5.78125c.171875-.226562.132812-.546874-.09375-.722656l-.816407-.625c-.097656-.074218-.214843-.113281-.335937-.105468zm0 0"/><path d="m5.953125 2.171875c-1.097656 0-1.984375.886719-1.984375 1.984375v15.875c0 1.101562.886719 1.988281 1.984375 1.988281h3.96875v-1.988281h-2.976563c-.550781 0-.992187-.441406-.992187-.992188v-13.890624c0-.550782.441406-.992188.992187-.992188h3.96875v-.003906h3.5625l3.390626 3.390625v2.070312h-.007813v2.480469h1.984375v-2.480469h-.003906v-2.480469c0-.261718-.101563-.511718-.289063-.699218l-3.96875-3.96875c-.183593-.183594-.4375-.289063-.699219-.289063h-3.96875v-.003906zm0 0"/></g></svg>

<svg xmlns="http://www.w3.org/2000/svg" xmlns:xlink="http://www.w3.org/1999/xlink" width="24px" height="24px" viewBox="0 0 24 24" version="1.1">
<g id="surface1">
<path style=" stroke:none;fill-rule:nonzero;fill:rgb(25.882354%,25.882354%,25.882354%);fill-opacity:0.392157;" d="M 11.90625 12.09375 L 11.90625 14.078125 L 13.890625 14.078125 L 13.890625 12.09375 Z M 13.890625 14.078125 L 13.890625 16.0625 L 15.875 16.0625 L 15.875 14.078125 Z M 15.875 14.078125 L 17.496094 14.078125 C 17.605469 13.96875 17.726562 13.878906 17.859375 13.804688 L 17.859375 12.09375 L 15.875 12.09375 Z M 15.875 16.0625 L 15.875 16.171875 L 15.960938 16.0625 Z M 13.890625 16.0625 L 12.644531 16.0625 C 12.78125 16.128906 12.910156 16.210938 13.027344 16.320312 L 13.890625 17.117188 Z M 11.90625 14.078125 L 9.921875 14.078125 L 9.921875 16.0625 L 11.375 16.0625 C 11.542969 15.988281 11.722656 15.941406 11.90625 15.929688 Z M 19.667969 14.078125 L 19.84375 14.214844 L 19.84375 14.078125 Z M 18.65625 15.792969 L 18.449219 16.0625 L 18.554688 16.0625 L 18.722656 15.84375 Z M 17.859375 16.832031 L 16.925781 18.046875 L 17.03125 18.046875 L 17.859375 16.964844 Z M 19.519531 18.046875 L 17.996094 20.03125 L 19.84375 20.03125 L 19.84375 18.046875 Z M 9.921875 18.746094 L 9.921875 20.03125 L 11.105469 20.03125 L 10.292969 19.28125 C 10.125 19.128906 10.003906 18.945312 9.921875 18.746094 Z M 15.875 19.417969 L 15.539062 19.859375 C 15.488281 19.921875 15.429688 19.980469 15.363281 20.03125 L 15.507812 20.03125 L 15.875 19.550781 Z M 13.890625 19.804688 L 13.890625 19.917969 L 14.015625 20.03125 L 14.144531 20.03125 C 14.125 20.015625 14.105469 20 14.085938 19.984375 Z M 17.859375 20.210938 L 16.472656 22.019531 L 17.859375 22.019531 Z M 11.90625 20.773438 L 11.90625 22.019531 L 13.253906 22.019531 Z M 11.90625 20.773438 "/>
     <defs>
  <style id="current-color-scheme" type="text/css">
   .ColorScheme-Text { color:#424242; } .ColorScheme-Highlight { color:#eeeeee; }
  </style>
 </defs>
<path style="fill:currentColor" class="ColorScheme-Text" d="M 18.546875 14.617188 C 18.394531 14.625 18.253906 14.695312 18.160156 14.816406 L 14.753906 19.257812 L 12.355469 17.042969 C 12.148438 16.851562 11.824219 16.863281 11.628906 17.074219 L 10.933594 17.828125 C 10.738281 18.039062 10.753906 18.363281 10.960938 18.558594 L 14.601562 21.914062 C 14.824219 22.121094 15.171875 22.089844 15.359375 21.851562 L 19.792969 16.070312 C 19.964844 15.84375 19.925781 15.523438 19.699219 15.347656 L 18.882812 14.722656 C 18.785156 14.648438 18.667969 14.609375 18.546875 14.617188 Z M 18.546875 14.617188 "/>
     <defs>
  <style id="current-color-scheme" type="text/css">
   .ColorScheme-Text { color:#424242; } .ColorScheme-Highlight { color:#eeeeee; }
  </style>
 </defs>
<path style="fill:currentColor" class="ColorScheme-Text" d="M 5.953125 2.171875 C 4.855469 2.171875 3.96875 3.058594 3.96875 4.15625 L 3.96875 20.03125 C 3.96875 21.132812 4.855469 22.019531 5.953125 22.019531 L 9.921875 22.019531 L 9.921875 20.03125 L 6.945312 20.03125 C 6.394531 20.03125 5.953125 19.589844 5.953125 19.039062 L 5.953125 5.148438 C 5.953125 4.597656 6.394531 4.15625 6.945312 4.15625 L 10.914062 4.15625 L 10.914062 4.152344 L 14.476562 4.152344 L 17.867188 7.542969 L 17.867188 9.613281 L 17.859375 9.613281 L 17.859375 12.09375 L 19.84375 12.09375 L 19.84375 9.613281 L 19.839844 9.613281 L 19.839844 7.132812 C 19.839844 6.871094 19.738281 6.621094 19.550781 6.433594 L 15.582031 2.464844 C 15.398438 2.28125 15.144531 2.175781 14.882812 2.175781 L 10.914062 2.175781 L 10.914062 2.171875 Z M 5.953125 2.171875 "/>
</g>
</svg>
